brand-assets/vite/vite-logo-mono-dark.svg

<svg width="270" height="47" viewBox="0 0 270 47" fill="none" xmlns="http://www.w3.org/2000/svg">
<path d="M233.768 45.7092C233.105 46.5536 231.748 46.084 231.748 45.0112V34.7079C231.748 33.4585 230.735 32.446 229.486 32.446H218.11C217.19 32.446 216.653 31.4055 217.19 30.658L224.669 20.1866C225.74 18.6895 224.669 16.6086 222.827 16.6086H209.06C208.14 16.6086 207.604 15.5681 208.14 14.8206L217.836 1.24503C218.049 0.94776 218.392 0.771118 218.756 0.771118H247.65C248.57 0.771118 249.106 1.81158 248.57 2.55908L241.09 13.0305C240.02 14.5276 241.09 16.6086 242.932 16.6086H254.308C255.252 16.6086 255.782 17.6964 255.198 18.4396L233.771 45.7114L233.768 45.7092Z" fill="#08060E"/>
<mask id="mask0_4026_15866" style="mask-type:alpha" maskUnits="userSpaceOnUse" x="207" y="0" width="49" height="47">
<path d="M233.664 45.709C233 46.5534 231.643 46.0838 231.643 45.0111V34.7077C231.643 33.4583 230.631 32.4458 229.381 32.4458H218.005C217.085 32.4458 216.549 31.4053 217.085 30.6579L224.565 20.1864C225.635 18.6893 224.565 16.6084 222.723 16.6084H208.956C208.036 16.6084 207.499 15.5679 208.036 14.8204L217.732 1.24485C217.945 0.947577 218.287 0.770935 218.651 0.770935H247.545C248.465 0.770935 249.002 1.8114 248.465 2.55889L240.986 13.0303C239.915 14.5274 240.986 16.6084 242.828 16.6084H254.204C255.147 16.6084 255.677 17.6962 255.094 18.4394L233.666 45.7112L233.664 45.709Z" fill="black"/>
</mask>
<g mask="url(#mask0_4026_15866)">
<g filter="url(#filter0_f_4026_15866)">
<ellipse cx="5.50802" cy="14.7043" rx="5.50802" ry="14.7043" transform="matrix(0.00324134 0.999995 0.999995 -0.00324134 203.354 32.2866)" fill="#08060E"/>
</g>
<g filter="url(#filter1_f_4026_15866)">
<ellipse cx="10.3995" cy="29.8514" rx="10.3995" ry="29.8514" transform="matrix(0.00324134 0.999995 0.999995 -0.00324134 168.494 8.65363)" fill="#08060E"/>
</g>
<g filter="url(#filter2_f_4026_15866)">
<ellipse cx="5.50802" cy="30.4868" rx="5.50802" ry="30.4868" transform="matrix(0.00324134 0.999995 0.999995 -0.00324134 167.355 12.0921)" fill="#08060E"/>
</g>
<g filter="url(#filter3_f_4026_15866)">
<ellipse cx="5.50802" cy="30.5986" rx="5.50802" ry="30.5986" transform="matrix(0.00324134 0.999995 0.999995 -0.00324134 171.95 30.0914)" fill="#08060E"/>
</g>
<g filter="url(#filter4_f_4026_15866)">
<ellipse cx="5.50802" cy="30.5986" rx="5.50802" ry="30.5986" transform="matrix(0.00324134 0.999995 0.999995 -0.00324134 173.482 31.2402)" fill="#08060E"/>
</g>
<g filter="url(#filter5_f_4026_15866)">
<ellipse cx="14.0715" cy="22.0783" rx="14.0715" ry="22.0783" transform="matrix(0.0584509 -0.99829 -0.99829 -0.0584509 282.171 27.6343)" fill="#08060E"/>
</g>
<g filter="url(#filter6_f_4026_15866)">
<ellipse cx="3.47034" cy="21.5008" rx="3.47034" ry="21.5008" transform="matrix(-0.0172986 -0.99985 -0.99985 0.0172986 283.617 18.8336)" fill="#08060E"/>
</g>
<g filter="url(#filter7_f_4026_15866)">
<ellipse cx="3.47034" cy="21.5008" rx="3.47034" ry="21.5008" transform="matrix(-0.0172986 -0.99985 -0.99985 0.0172986 283.617 18.8336)" fill="#08060E"/>
</g>
<g filter="url(#filter8_f_4026_15866)">
<ellipse cx="208.21" cy="9.7425" rx="4.40666" ry="29.1076" transform="rotate(39.5103 208.21 9.7425)" fill="#08060E"/>
</g>
<g filter="url(#filter9_f_4026_15866)">
<ellipse cx="255.345" cy="-5.32074" rx="4.40666" ry="29.1076" transform="rotate(37.8923 255.345 -5.32074)" fill="#08060E"/>
</g>
<g filter="url(#filter10_f_4026_15866)">
<ellipse cx="249.235" cy="7.10444" rx="5.9715" ry="9.66515" transform="rotate(37.8923 249.235 7.10444)" fill="#08060E"/>
</g>
<g filter="url(#filter11_f_4026_15866)">
<ellipse cx="205.944" cy="39.103" rx="4.40666" ry="29.1076" transform="rotate(37.8923 205.944 39.103)" fill="#08060E"/>
</g>
<g filter="url(#filter12_f_4026_15866)">
<ellipse cx="205.944" cy="39.103" rx="4.40666" ry="29.1076" transform="rotate(37.8923 205.944 39.103)" fill="#08060E"/>
</g>
<g filter="url(#filter13_f_4026_15866)">
<ellipse cx="243.474" cy="30.6778" rx="4.40666" ry="29.1076" transform="rotate(37.8923 243.474 30.6778)" fill="#08060E"/>
</g>
<g filter="url(#filter14_f_4026_15866)">
<ellipse cx="246.241" cy="33.1709" rx="5.9715" ry="15.2974" transform="rotate(37.8923 246.241 33.1709)" fill="#08060E"/>
</g>
</g>
<path d="M200.536 0C191.338 13.1663 191.284 33.5749 200.536 46.7885H206.751C197.501 33.5749 197.555 13.1663 206.751 0H200.536Z" fill="#08060E"/>
<path d="M262.959 0H256.745C265.943 13.1663 265.997 33.5749 256.745 46.7885H262.959C272.209 33.5749 272.156 13.1663 262.959 0Z" fill="#08060E"/>
<path d="M28.499 33.346L40.2607 0.775696H56.3525L38.5156 46.013H17.8359L0 0.775696H16.5439L28.499 33.346ZM77.2266 46.013H61.7168V0.775696H77.2266V46.013ZM133.559 11.8909H116.174V46.013H100.664V11.8909H83.2803V0.775696H133.559V11.8909ZM184.268 11.762H155.121V17.8362H183.815V28.4993H155.121V35.0267H185.107V46.013H139.611V0.775696H184.268V11.762Z" fill="#08060E"/>
<defs>
<filter id="filter0_f_4026_15866" x="188.053" y="16.9202" width="60.0452" height="41.6534" filterUnits="userSpaceOnUse" color-interpolation-filters="sRGB">
<feFlood flood-opacity="0" result="BackgroundImageFix"/>
<feBlend mode="normal" in="SourceGraphic" in2="BackgroundImageFix" result="shape"/>
<feGaussianBlur stdDeviation="7.65926" result="effect1_foregroundBlur_4026_15866"/>
</filter>
<filter id="filter1_f_4026_15866" x="153.209" y="-6.76213" width="90.3397" height="51.4368" filterUnits="userSpaceOnUse" color-interpolation-filters="sRGB">
<feFlood flood-opacity="0" result="BackgroundImageFix"/>
<feBlend mode="normal" in="SourceGraphic" in2="BackgroundImageFix" result="shape"/>
<feGaussianBlur stdDeviation="7.65926" result="effect1_foregroundBlur_4026_15866"/>
</filter>
<filter id="filter2_f_4026_15866" x="158.182" y="2.80126" width="79.3554" height="29.4" filterUnits="userSpaceOnUse" color-interpolation-filters="sRGB">
<feFlood flood-opacity="0" result="BackgroundImageFix"/>
<feBlend mode="normal" in="SourceGraphic" in2="BackgroundImageFix" result="shape"/>
<feGaussianBlur stdDeviation="4.59556" result="effect1_foregroundBlur_4026_15866"/>
</filter>
<filter id="filter3_f_4026_15866" x="162.777" y="20.8002" width="79.579" height="29.4" filterUnits="userSpaceOnUse" color-interpolation-filters="sRGB">
<feFlood flood-opacity="0" result="BackgroundImageFix"/>
<feBlend mode="normal" in="SourceGraphic" in2="BackgroundImageFix" result="shape"/>
<feGaussianBlur stdDeviation="4.59556" result="effect1_foregroundBlur_4026_15866"/>
</filter>
<filter id="filter4_f_4026_15866" x="164.309" y="21.949" width="79.579" height="29.4" filterUnits="userSpaceOnUse" color-interpolation-filters="sRGB">
<feFlood flood-opacity="0" result="BackgroundImageFix"/>
<feBlend mode="normal" in="SourceGraphic" in2="BackgroundImageFix" result="shape"/>
<feGaussianBlur stdDeviation="4.59556" result="effect1_foregroundBlur_4026_15866"/>
</filter>
<filter id="filter5_f_4026_15866" x="223.578" y="-17.1296" width="74.7493" height="58.852" filterUnits="userSpaceOnUse" color-interpolation-filters="sRGB">
<feFlood flood-opacity="0" result="BackgroundImageFix"/>
<feBlend mode="normal" in="SourceGraphic" in2="BackgroundImageFix" result="shape"/>
<feGaussianBlur stdDeviation="7.65926" result="effect1_foregroundBlur_4026_15866"/>
</filter>
<filter id="filter6_f_4026_15866" x="231.37" y="3.05455" width="61.3773" height="25.3622" filterUnits="userSpaceOnUse" color-interpolation-filters="sRGB">
<feFlood flood-opacity="0" result="BackgroundImageFix"/>
<feBlend mode="normal" in="SourceGraphic" in2="BackgroundImageFix" result="shape"/>
<feGaussianBlur stdDeviation="4.59556" result="effect1_foregroundBlur_4026_15866"/>
</filter>
<filter id="filter7_f_4026_15866" x="231.37" y="3.05455" width="61.3773" height="25.3622" filterUnits="userSpaceOnUse" color-interpolation-filters="sRGB">
<feFlood flood-opacity="0" result="BackgroundImageFix"/>
<feBlend mode="normal" in="SourceGraphic" in2="BackgroundImageFix" result="shape"/>
<feGaussianBlur stdDeviation="4.59556" result="effect1_foregroundBlur_4026_15866"/>
</filter>
<filter id="filter8_f_4026_15866" x="180.187" y="-22.0822" width="56.0453" height="63.6493" filterUnits="userSpaceOnUse" color-interpolation-filters="sRGB">
<feFlood flood-opacity="0" result="BackgroundImageFix"/>
<feBlend mode="normal" in="SourceGraphic" in2="BackgroundImageFix" result="shape"/>
<feGaussianBlur stdDeviation="4.59556" result="effect1_foregroundBlur_4026_15866"/>
</filter>
<filter id="filter9_f_4026_15866" x="227.938" y="-37.6438" width="54.8139" height="64.646" filterUnits="userSpaceOnUse" color-interpolation-filters="sRGB">
<feFlood flood-opacity="0" result="BackgroundImageFix"/>
<feBlend mode="normal" in="SourceGraphic" in2="BackgroundImageFix" result="shape"/>
<feGaussianBlur stdDeviation="4.59556" result="effect1_foregroundBlur_4026_15866"/>
</filter>
<filter id="filter10_f_4026_15866" x="232.464" y="-10.552" width="33.5414" height="35.3129" filterUnits="userSpaceOnUse" color-interpolation-filters="sRGB">
<feFlood flood-opacity="0" result="BackgroundImageFix"/>
<feBlend mode="normal" in="SourceGraphic" in2="BackgroundImageFix" result="shape"/>
<feGaussianBlur stdDeviation="4.59556" result="effect1_foregroundBlur_4026_15866"/>
</filter>
<filter id="filter11_f_4026_15866" x="178.536" y="6.77996" width="54.8139" height="64.646" filterUnits="userSpaceOnUse" color-interpolation-filters="sRGB">
<feFlood flood-opacity="0" result="BackgroundImageFix"/>
<feBlend mode="normal" in="SourceGraphic" in2="BackgroundImageFix" result="shape"/>
<feGaussianBlur stdDeviation="4.59556" result="effect1_foregroundBlur_4026_15866"/>
</filter>
<filter id="filter12_f_4026_15866" x="178.536" y="6.77996" width="54.8139" height="64.646" filterUnits="userSpaceOnUse" color-interpolation-filters="sRGB">
<feFlood flood-opacity="0" result="BackgroundImageFix"/>
<feBlend mode="normal" in="SourceGraphic" in2="BackgroundImageFix" result="shape"/>
<feGaussianBlur stdDeviation="4.59556" result="effect1_foregroundBlur_4026_15866"/>
</filter>
<filter id="filter13_f_4026_15866" x="216.067" y="-1.64522" width="54.8139" height="64.646" filterUnits="userSpaceOnUse" color-interpolation-filters="sRGB">
<feFlood flood-opacity="0" result="BackgroundImageFix"/>
<feBlend mode="normal" in="SourceGraphic" in2="BackgroundImageFix" result="shape"/>
<feGaussianBlur stdDeviation="4.59556" result="effect1_foregroundBlur_4026_15866"/>
</filter>
<filter id="filter14_f_4026_15866" x="226.536" y="11.3595" width="39.4091" height="43.6228" filterUnits="userSpaceOnUse" color-interpolation-filters="sRGB">
<feFlood flood-opacity="0" result="BackgroundImageFix"/>
<feBlend mode="normal" in="SourceGraphic" in2="BackgroundImageFix" result="shape"/>
<feGaussianBlur stdDeviation="4.59556" result="effect1_foregroundBlur_4026_15866"/>
</filter>
</defs>
</svg>

<svg xmlns="http://www.w3.org/2000/svg" width="270" height="47" fill="none" viewBox="0 0 270 47"><path fill="#08060e" d="M233.768 45.71c-.663.844-2.02.374-2.02-.699V34.708a2.26 2.26 0 0 0-2.262-2.262H218.11c-.92 0-1.457-1.04-.92-1.788l7.479-10.471c1.071-1.498 0-3.578-1.842-3.578H209.06c-.92 0-1.456-1.04-.92-1.788l9.696-13.576c.213-.297.556-.474.92-.474h28.894c.92 0 1.456 1.04.92 1.788l-7.48 10.471c-1.07 1.498 0 3.579 1.842 3.579h11.376c.944 0 1.474 1.087.89 1.83l-21.427 27.272z"/><mask id="a" width="49" height="47" x="207" y="0" maskUnits="userSpaceOnUse" style="mask-type:alpha"><path fill="#000" d="M233.664 45.709c-.664.844-2.021.375-2.021-.698V34.708a2.26 2.26 0 0 0-2.262-2.262h-11.376c-.92 0-1.456-1.04-.92-1.788l7.48-10.472c1.07-1.497 0-3.578-1.842-3.578h-13.767c-.92 0-1.457-1.04-.92-1.788l9.696-13.575c.213-.297.555-.474.919-.474h28.894c.92 0 1.457 1.04.92 1.788l-7.479 10.471c-1.071 1.497 0 3.578 1.842 3.578h11.376c.943 0 1.473 1.088.89 1.831l-21.428 27.272z"/></mask><g mask="url(#a)"><g filter="url(#b)"><ellipse cx="5.508" cy="14.704" fill="#08060e" rx="5.508" ry="14.704" transform="rotate(89.814 85.481 118.15)scale(1 -1)"/></g><g filter="url(#c)"><ellipse cx="10.399" cy="29.851" fill="#08060e" rx="10.399" ry="29.851" transform="rotate(89.814 79.906 88.847)scale(1 -1)"/></g><g filter="url(#d)"><ellipse cx="5.508" cy="30.487" fill="#08060e" rx="5.508" ry="30.487" transform="rotate(89.814 77.612 89.995)scale(1 -1)"/></g><g filter="url(#e)"><ellipse cx="5.508" cy="30.599" fill="#08060e" rx="5.508" ry="30.599" transform="rotate(89.814 70.88 101.3)scale(1 -1)"/></g><g filter="url(#f)"><ellipse cx="5.508" cy="30.599" fill="#08060e" rx="5.508" ry="30.599" transform="rotate(89.814 71.07 102.643)scale(1 -1)"/></g><g filter="url(#g)"><ellipse cx="14.072" cy="22.078" fill="#08060e" rx="14.072" ry="22.078" transform="rotate(93.35 128.054 146.884)scale(-1 1)"/></g><g filter="url(#h)"><ellipse cx="3.47" cy="21.501" fill="#08060e" rx="3.47" ry="21.501" transform="rotate(89.009 132.227 153.7)scale(-1 1)"/></g><g filter="url(#i)"><ellipse cx="3.47" cy="21.501" fill="#08060e" rx="3.47" ry="21.501" transform="rotate(89.009 132.227 153.7)scale(-1 1)"/></g><g filter="url(#j)"><ellipse cx="208.21" cy="9.742" fill="#08060e" rx="4.407" ry="29.108" transform="rotate(39.51 208.21 9.742)"/></g><g filter="url(#k)"><ellipse cx="255.345" cy="-5.321" fill="#08060e" rx="4.407" ry="29.108" transform="rotate(37.892 255.345 -5.32)"/></g><g filter="url(#l)"><ellipse cx="249.235" cy="7.104" fill="#08060e" rx="5.971" ry="9.665" transform="rotate(37.892 249.235 7.104)"/></g><g filter="url(#m)"><ellipse cx="205.944" cy="39.103" fill="#08060e" rx="4.407" ry="29.108" transform="rotate(37.892 205.944 39.103)"/></g><g filter="url(#n)"><ellipse cx="205.944" cy="39.103" fill="#08060e" rx="4.407" ry="29.108" transform="rotate(37.892 205.944 39.103)"/></g><g filter="url(#o)"><ellipse cx="243.474" cy="30.678" fill="#08060e" rx="4.407" ry="29.108" transform="rotate(37.892 243.474 30.678)"/></g><g filter="url(#p)"><ellipse cx="246.241" cy="33.171" fill="#08060e" rx="5.971" ry="15.297" transform="rotate(37.892 246.241 33.17)"/></g></g><path fill="#08060e" d="M200.536 0c-9.198 13.166-9.252 33.575 0 46.789h6.215c-9.25-13.214-9.196-33.623 0-46.789zm62.423 0h-6.214c9.198 13.166 9.252 33.575 0 46.789h6.214c9.25-13.214 9.197-33.623 0-46.789M28.499 33.346 40.261.776h16.091L38.517 46.013h-20.68L0 .776h16.544zm48.728 12.667h-15.51V.776h15.51zm56.332-34.122h-17.385v34.122h-15.51V11.891H83.28V.776h50.279zm50.709-.129h-29.147v6.074h28.694V28.5h-28.694v6.528h29.986v10.986h-45.496V.776h44.657z"/><defs><filter id="b" width="60.045" height="41.653" x="188.053" y="16.92" color-interpolation-filters="sRGB" filterUnits="userSpaceOnUse"><feFlood flood-opacity="0" result="BackgroundImageFix"/><feBlend in="SourceGraphic" in2="BackgroundImageFix" result="shape"/><feGaussianBlur result="effect1_foregroundBlur_4026_15866" stdDeviation="7.659"/></filter><filter id="c" width="90.34" height="51.437" x="153.209" y="-6.762" color-interpolation-filters="sRGB" filterUnits="userSpaceOnUse"><feFlood flood-opacity="0" result="BackgroundImageFix"/><feBlend in="SourceGraphic" in2="BackgroundImageFix" result="shape"/><feGaussianBlur result="effect1_foregroundBlur_4026_15866" stdDeviation="7.659"/></filter><filter id="d" width="79.355" height="29.4" x="158.182" y="2.801" color-interpolation-filters="sRGB" filterUnits="userSpaceOnUse"><feFlood flood-opacity="0" result="BackgroundImageFix"/><feBlend in="SourceGraphic" in2="BackgroundImageFix" result="shape"/><feGaussianBlur result="effect1_foregroundBlur_4026_15866" stdDeviation="4.596"/></filter><filter id="e" width="79.579" height="29.4" x="162.777" y="20.8" color-interpolation-filters="sRGB" filterUnits="userSpaceOnUse"><feFlood flood-opacity="0" result="BackgroundImageFix"/><feBlend in="SourceGraphic" in2="BackgroundImageFix" result="shape"/><feGaussianBlur result="effect1_foregroundBlur_4026_15866" stdDeviation="4.596"/></filter><filter id="f" width="79.579" height="29.4" x="164.309" y="21.949" color-interpolation-filters="sRGB" filterUnits="userSpaceOnUse"><feFlood flood-opacity="0" result="BackgroundImageFix"/><feBlend in="SourceGraphic" in2="BackgroundImageFix" result="shape"/><feGaussianBlur result="effect1_foregroundBlur_4026_15866" stdDeviation="4.596"/></filter><filter id="g" width="74.749" height="58.852" x="223.578" y="-17.13" color-interpolation-filters="sRGB" filterUnits="userSpaceOnUse"><feFlood flood-opacity="0" result="BackgroundImageFix"/><feBlend in="SourceGraphic" in2="BackgroundImageFix" result="shape"/><feGaussianBlur result="effect1_foregroundBlur_4026_15866" stdDeviation="7.659"/></filter><filter id="h" width="61.377" height="25.362" x="231.37" y="3.055" color-interpolation-filters="sRGB" filterUnits="userSpaceOnUse"><feFlood flood-opacity="0" result="BackgroundImageFix"/><feBlend in="SourceGraphic" in2="BackgroundImageFix" result="shape"/><feGaussianBlur result="effect1_foregroundBlur_4026_15866" stdDeviation="4.596"/></filter><filter id="i" width="61.377" height="25.362" x="231.37" y="3.055" color-interpolation-filters="sRGB" filterUnits="userSpaceOnUse"><feFlood flood-opacity="0" result="BackgroundImageFix"/><feBlend in="SourceGraphic" in2="BackgroundImageFix" result="shape"/><feGaussianBlur result="effect1_foregroundBlur_4026_15866" stdDeviation="4.596"/></filter><filter id="j" width="56.045" height="63.649" x="180.187" y="-22.082" color-interpolation-filters="sRGB" filterUnits="userSpaceOnUse"><feFlood flood-opacity="0" result="BackgroundImageFix"/><feBlend in="SourceGraphic" in2="BackgroundImageFix" result="shape"/><feGaussianBlur result="effect1_foregroundBlur_4026_15866" stdDeviation="4.596"/></filter><filter id="k" width="54.814" height="64.646" x="227.938" y="-37.644" color-interpolation-filters="sRGB" filterUnits="userSpaceOnUse"><feFlood flood-opacity="0" result="BackgroundImageFix"/><feBlend in="SourceGraphic" in2="BackgroundImageFix" result="shape"/><feGaussianBlur result="effect1_foregroundBlur_4026_15866" stdDeviation="4.596"/></filter><filter id="l" width="33.541" height="35.313" x="232.464" y="-10.552" color-interpolation-filters="sRGB" filterUnits="userSpaceOnUse"><feFlood flood-opacity="0" result="BackgroundImageFix"/><feBlend in="SourceGraphic" in2="BackgroundImageFix" result="shape"/><feGaussianBlur result="effect1_foregroundBlur_4026_15866" stdDeviation="4.596"/></filter><filter id="m" width="54.814" height="64.646" x="178.536" y="6.78" color-interpolation-filters="sRGB" filterUnits="userSpaceOnUse"><feFlood flood-opacity="0" result="BackgroundImageFix"/><feBlend in="SourceGraphic" in2="BackgroundImageFix" result="shape"/><feGaussianBlur result="effect1_foregroundBlur_4026_15866" stdDeviation="4.596"/></filter><filter id="n" width="54.814" height="64.646" x="178.536" y="6.78" color-interpolation-filters="sRGB" filterUnits="userSpaceOnUse"><feFlood flood-opacity="0" result="BackgroundImageFix"/><feBlend in="SourceGraphic" in2="BackgroundImageFix" result="shape"/><feGaussianBlur result="effect1_foregroundBlur_4026_15866" stdDeviation="4.596"/></filter><filter id="o" width="54.814" height="64.646" x="216.067" y="-1.645" color-interpolation-filters="sRGB" filterUnits="userSpaceOnUse"><feFlood flood-opacity="0" result="BackgroundImageFix"/><feBlend in="SourceGraphic" in2="BackgroundImageFix" result="shape"/><feGaussianBlur result="effect1_foregroundBlur_4026_15866" stdDeviation="4.596"/></filter><filter id="p" width="39.409" height="43.623" x="226.536" y="11.36" color-interpolation-filters="sRGB" filterUnits="userSpaceOnUse"><feFlood flood-opacity="0" result="BackgroundImageFix"/><feBlend in="SourceGraphic" in2="BackgroundImageFix" result="shape"/><feGaussianBlur result="effect1_foregroundBlur_4026_15866" stdDeviation="4.596"/></filter></defs></svg>
